icons/bhi_nps.svg

<svg xmlns="http://www.w3.org/2000/svg" viewBox="0 0 512 512" enable-background="new 0 0 512 512"><path fill="#010101" d="M402.9 362.9s-8.6-17.1-11.4-25.7l-8.6-20 134.3-57.2-171.5-260-317.1 320-28.6 28.6 34.3 45.7 37.1 54.3 28.6-11.4 77.1-31.4 8.6 17.1c5.7 14.3 11.4 25.7 11.4 25.7l205.8-85.7zm-40-11.5l-148.6 62.9c-2.9 0-2.9 0-5.7-2.9l-8.6-17.1 154.3-65.7 8.6 20v2.8zm-25.7-285.7l120 177.1-100 42.9-162.9 68.6-85.7 34.3-17.1 8.6-34.3-51.4 280-280.1z"/></svg>

<?xml version="1.0" encoding="utf-8"?>
<!-- Generator: Adobe Illustrator 19.2.0, SVG Export Plug-In . SVG Version: 6.00 Build 0)  -->
<svg version="1.1" id="Layer_1" xmlns="http://www.w3.org/2000/svg" xmlns:xlink="http://www.w3.org/1999/xlink" x="0px" y="0px"
	 viewBox="0 0 512 512" enable-background="new 0 0 512 512" xml:space="preserve">
<path fill="#010101" d="M402.9,362.9c0,0-8.6-17.1-11.4-25.7l-8.6-20L517.2,260L345.7,0L28.6,320L0,348.6l34.3,45.7l37.1,54.3
	l28.6-11.4l77.1-31.4l8.6,17.1c5.7,14.3,11.4,25.7,11.4,25.7L402.9,362.9z M362.9,351.4L362.9,351.4l-148.6,62.9l0,0
	c-2.9,0-2.9,0-5.7-2.9l-8.6-17.1l154.3-65.7l8.6,20V351.4z M337.2,65.7l120,177.1l-100,42.9l-162.9,68.6l0,0l-85.7,34.3l-17.1,8.6
	l-34.3-51.4L337.2,65.7z"/>
</svg>
